icons/File_1.svg

<svg width="24" height="24" viewBox="0 0 24 24" fill="none" xmlns="http://www.w3.org/2000/svg">
<path fill-rule="evenodd" clip-rule="evenodd" d="M4.25,4c0,-0.9665 0.7835,-1.75 1.75,-1.75h8c0.1989,0 0.3897,0.07902 0.5303,0.21967l5,5c0.1407,0.14065 0.2197,0.33142 0.2197,0.53033v12c0,0.9665 -0.7835,1.75 -1.75,1.75h-12c-0.9665,0 -1.75,-0.7835 -1.75,-1.75zM6,3.75c-0.13807,0 -0.25,0.11193 -0.25,0.25v16c0,0.1381 0.11193,0.25 0.25,0.25h12c0.1381,0 0.25,-0.1119 0.25,-0.25v-11.25h-3.75c-0.6904,0 -1.25,-0.55964 -1.25,-1.25v-3.75zM14.75,7.25h2.4393l-2.4393,-2.43934z" fill="#002B51"/>
</svg>

<svg width="24" height="24" viewBox="0 0 24 24" fill="none" xmlns="http://www.w3.org/2000/svg">
<path fill-rule="evenodd" clip-rule="evenodd" d="M4.25 4C4.25 3.0335 5.0335 2.25 6 2.25H14C14.1989 2.25 14.3897 2.32902 14.5303 2.46967L19.5303 7.46967C19.671 7.61032 19.75 7.80109 19.75 8V20C19.75 20.9665 18.9665 21.75 18 21.75H6C5.0335 21.75 4.25 20.9665 4.25 20V4ZM6 3.75C5.86193 3.75 5.75 3.86193 5.75 4V20C5.75 20.1381 5.86193 20.25 6 20.25H18C18.1381 20.25 18.25 20.1381 18.25 20V8.75H14.5C13.8096 8.75 13.25 8.19036 13.25 7.5V3.75H6ZM14.75 4.81066L17.1893 7.25H14.75V4.81066Z" fill="#002B51"/>
</svg>
